Koronavilkku/Koronavilkku/Resources/Assets.xcassets/exposure-guide-1.imageset/Lock screen notification.svg

<svg fill="none" height="310" viewBox="0 0 300 310" width="300" xmlns="http://www.w3.org/2000/svg" xmlns:xlink="http://www.w3.org/1999/xlink"><filter id="a" color-interpolation-filters="sRGB" filterUnits="userSpaceOnUse" height="301.29" width="179.151" x="59.9595" y="-13.1052"><feFlood flood-opacity="0" result="BackgroundImageFix"/><feColorMatrix in="SourceAlpha" type="matrix" values="0 0 0 0 0 0 0 0 0 0 0 0 0 0 0 0 0 0 127 0"/><feOffset dy="5.72585"/><feGaussianBlur stdDeviation="10.0202"/><feColorMatrix type="matrix" values="0 0 0 0 0.136354 0 0 0 0 0.294906 0 0 0 0 0.425 0 0 0 0.1 0"/><feBlend in2="BackgroundImageFix" mode="normal" result="effect1_dropShadow"/><feBlend in="SourceGraphic" in2="effect1_dropShadow" mode="normal" result="shape"/></filter><filter id="b" color-interpolation-filters="sRGB" filterUnits="userSpaceOnUse" height="307.352" width="196.328" x="51.3707" y="-10.5782"><feFlood flood-opacity="0" result="BackgroundImageFix"/><feColorMatrix in="SourceAlpha" type="matrix" values="0 0 0 0 0 0 0 0 0 0 0 0 0 0 0 0 0 0 127 0"/><feOffset dy="5.72585"/><feGaussianBlur stdDeviation="14.3146"/><feColorMatrix type="matrix" values="0 0 0 0 0.136354 0 0 0 0 0.294906 0 0 0 0 0.425 0 0 0 0.2 0"/><feBlend in2="BackgroundImageFix" mode="normal" result="effect1_dropShadow"/><feBlend in="SourceGraphic" in2="effect1_dropShadow" mode="normal" result="shape"/></filter><filter id="c" color-interpolation-filters="sRGB" filterUnits="userSpaceOnUse" height="60.6512" width="130.791" x="84.3967" y="104.884"><feFlood flood-opacity="0" result="BackgroundImageFix"/><feColorMatrix in="SourceAlpha" type="matrix" values="0 0 0 0 0 0 0 0 0 0 0 0 0 0 0 0 0 0 127 0"/><feOffset dy="4"/><feGaussianBlur stdDeviation="7"/><feColorMatrix type="matrix" values="0 0 0 0 0.136354 0 0 0 0 0.294906 0 0 0 0 0.425 0 0 0 0.1 0"/><feBlend in2="BackgroundImageFix" mode="normal" result="effect1_dropShadow"/><feBlend in="SourceGraphic" in2="effect1_dropShadow" mode="normal" result="shape"/></filter><linearGradient id="d" gradientUnits="userSpaceOnUse" x1="128.498" x2="-39.4908" y1="236.162" y2="-98.8295"><stop offset="0" stop-color="#f8ecf7"/><stop offset=".005618" stop-color="#f8ecf7"/><stop offset=".449438" stop-color="#d0dbf2"/><stop offset="1" stop-color="#b8c8ea"/></linearGradient><path clip-rule="evenodd" d="m130.395 33.5622c32.059-4.7282 64.698-32.22763 92.758-19.2138 27.995 12.9836 18.574 50.6199 30.171 76.2257 10.89 24.0459 36.599 42.8019 35.577 68.9449-1.114 28.465-14.231 59.397-41.269 76.542-26.38 16.728-61.755 8.552-93.953 9.204-28.171.57-56.9185 4.807-81.9042-5.643-25.8299-10.803-48.5547-28.93-57.3399-52.595-8.41944-22.679 7.3421-46.149 11.8149-70.035 4.8653-25.9816-7.1278-57.7552 15.5108-75.8908 22.6274-18.1266 58.5634-3.1038 88.6344-7.539z" fill="url(#d)" fill-rule="evenodd"/><g stroke="#d64176" stroke-linecap="round" stroke-width="4"><path d="m259.746 167.764c20.036-20.279 20.036-53.159 0-73.4383"/><path d="m247.653 155.524c13.358-13.519 13.358-35.439 0-48.959"/><path d="m235.561 143.285c6.678-6.76 6.678-17.72 0-24.479"/></g><g filter="url(#a)"><g filter="url(#b)"><rect fill="#303030" height="250.094" rx="7.15732" width="139.07" x="80" y="12.3252"/></g><rect fill="#606060" height="250.094" rx="7.15732" width="139.07" x="80" y="1.20947"/><rect fill="#f2f6fb" height="211.19" rx="4.29439" width="116.819" x="91.2173" y="12.3252"/><g filter="url(#c)"><rect fill="#fff" height="32.6512" rx="5" width="102.791" x="98.3967" y="114.884"/></g><ellipse cx="190.304" cy="123.349" fill="#d64176" rx="15.7209" ry="15.7209"/><path clip-rule="evenodd" d="m190.304 114.884c-1.002 0-1.814.812-1.814 1.814v8.465c0 1.002.812 1.814 1.814 1.814s1.814-.812 1.814-1.814v-8.465c0-1.002-.812-1.814-1.814-1.814zm0 18.139c1.002 0 1.814-.812 1.814-1.814 0-1.001-.812-1.814-1.814-1.814s-1.814.813-1.814 1.814c0 1.002.812 1.814 1.814 1.814z" fill="#fff" fill-rule="evenodd"/><rect fill="#b2b2b2" height="4.83721" rx="2.41861" width="61.6744" x="105.653" y="122.14"/><rect fill="#b2b2b2" height="4.83723" rx="2.41862" width="48.3721" x="105.653" y="134.232"/><g fill="#8c8c8c"><path d="m120.409 93.1163v-1.1319h4.353v-15.3823h-3.308v-.8707c.754-.1355 1.422-.2999 2.002-.4934.6-.1935 1.122-.416 1.567-.6676h1.045v17.414h4.034v1.1319z"/><path d="m133.484 93.1163v-.8126c1.529-1.5479 2.864-2.9314 4.005-4.1504 1.142-1.2383 2.09-2.3605 2.845-3.3667.774-1.0255 1.344-1.9639 1.712-2.8152.387-.8707.58-1.7124.58-2.525 0-1.161-.328-2.1381-.986-2.9314-.639-.7933-1.655-1.1899-3.048-1.1899-.851 0-1.644.2321-2.38.6965-.735.4644-1.383 1.0448-1.944 1.7414l-.842-.8126c.697-.774 1.461-1.4222 2.293-1.9446.851-.5224 1.848-.7836 2.989-.7836 1.664 0 2.951.474 3.86 1.4221.91.9481 1.364 2.2058 1.364 3.773 0 .9288-.203 1.8575-.609 2.7863-.406.9094-.977 1.8768-1.712 2.9023-.736 1.0061-1.635 2.0897-2.7 3.2506-1.044 1.1416-2.205 2.3896-3.482 3.744.503-.0387 1.015-.0677 1.538-.0871.542-.0387 1.064-.058 1.567-.058h6.327v1.1609z"/><path d="m149.81 82.3777c-.329 0-.619-.1161-.871-.3483-.251-.2322-.377-.5514-.377-.9577 0-.4257.126-.7546.377-.9868.252-.2322.542-.3483.871-.3483s.61.1161.842.3483c.251.2322.377.5611.377.9868 0 .4063-.126.7255-.377.9577-.232.2322-.513.3483-.842.3483zm0 11.0869c-.329 0-.619-.1161-.871-.3483-.251-.2322-.377-.5514-.377-.9578 0-.4256.126-.7546.377-.9867.252-.2322.542-.3483.871-.3483s.61.1161.842.3483c.251.2321.377.5611.377.9867 0 .4064-.126.7256-.377.9578-.232.2322-.513.3483-.842.3483z"/><path d="m160.135 93.4646c-.735 0-1.403-.0774-2.002-.2322-.6-.1548-1.142-.3579-1.626-.6095-.464-.2515-.89-.5321-1.277-.8417-.367-.3095-.696-.6191-.987-.9287l.755-.8997c.271.3096.571.6095.9.8997.329.2709.696.5224 1.103.7546.425.2128.89.387 1.393.5224.522.1355 1.103.2032 1.741.2032.619 0 1.19-.0968 1.713-.2902.541-.1935 1.006-.4644 1.393-.8127.387-.3676.687-.803.899-1.306.213-.5031.32-1.0642.32-1.6834 0-.6385-.126-1.219-.378-1.7414-.232-.5224-.609-.9674-1.132-1.3351-.503-.3869-1.17-.6868-2.002-.8997-.813-.2128-1.8-.3192-2.961-.3192v-1.1319c1.065 0 1.964-.1065 2.7-.3193.754-.2128 1.354-.4934 1.799-.8417.464-.3676.793-.7933.987-1.277.213-.5031.319-1.0352.319-1.5963 0-1.0448-.339-1.8768-1.016-2.496-.677-.6385-1.586-.9577-2.728-.9577-.871 0-1.664.2031-2.38.6094-.716.387-1.345.8611-1.886 1.4222l-.755-.8707c.639-.6192 1.364-1.1513 2.177-1.5963.812-.445 1.761-.6675 2.844-.6675.716 0 1.384.1064 2.003.3192.619.1935 1.151.4837 1.596.8707.464.3676.822.832 1.074 1.3931.271.5418.406 1.1706.406 1.8866 0 1.2189-.338 2.2057-1.016 2.9603-.658.7353-1.499 1.277-2.525 1.6253v.1161c.581.1161 1.123.3193 1.626.6095.503.2709.948.6095 1.335 1.0158s.687.8804.899 1.4222c.233.5224.349 1.1125.349 1.7704 0 .8126-.145 1.5479-.436 2.2057-.29.6386-.696 1.19-1.219 1.6544-.503.445-1.103.7933-1.799 1.0448-.677.2322-1.413.3483-2.206.3483z"/><path d="m174.662 93.4646c-1.78 0-3.154-.832-4.122-2.496-.948-1.6834-1.422-4.0826-1.422-7.1978 0-3.0958.474-5.4564 1.422-7.0817.968-1.6446 2.342-2.4669 4.122-2.4669s3.144.8223 4.092 2.4669c.967 1.6253 1.451 3.9859 1.451 7.0817 0 3.1152-.484 5.5144-1.451 7.1978-.948 1.664-2.312 2.496-4.092 2.496zm0-1.1029c1.296 0 2.322-.7159 3.076-2.1477.774-1.4512 1.161-3.5989 1.161-6.4432s-.387-4.963-1.161-6.3561c-.754-1.3931-1.78-2.0896-3.076-2.0896-1.277 0-2.303.6965-3.077 2.0896s-1.161 3.5118-1.161 6.3561.387 4.992 1.161 6.4432c.774 1.4318 1.8 2.1477 3.077 2.1477z"/></g><rect fill="#b2b2b2" height="8.70695" rx="4.35348" width="36.6031" x="130.547" y="232.815"/></g></svg>

<svg width="300" height="310" viewBox="0 0 300 310" fill="none" xmlns="http://www.w3.org/2000/svg">
<path fill-rule="evenodd" clip-rule="evenodd" d="M130.395 33.5622C162.454 28.834 195.093 1.33457 223.153 14.3484C251.148 27.332 241.727 64.9683 253.324 90.5741C264.214 114.62 289.923 133.376 288.901 159.519C287.787 187.984 274.67 218.916 247.632 236.061C221.252 252.789 185.877 244.613 153.679 245.265C125.508 245.835 96.7605 250.072 71.7748 239.622C45.9449 228.819 23.2201 210.692 14.4349 187.027C6.01546 164.348 21.777 140.878 26.2498 116.992C31.1151 91.0104 19.122 59.2368 41.7606 41.1012C64.388 22.9746 100.324 37.9974 130.395 33.5622Z" fill="url(#paint0_linear)"/>
<path d="M259.746 167.764C279.782 147.485 279.782 114.605 259.746 94.3257" stroke="#D64176" stroke-width="4" stroke-linecap="round"/>
<path d="M247.653 155.524C261.011 142.005 261.011 120.085 247.653 106.565" stroke="#D64176" stroke-width="4" stroke-linecap="round"/>
<path d="M235.561 143.285C242.239 136.525 242.239 125.565 235.561 118.806" stroke="#D64176" stroke-width="4" stroke-linecap="round"/>
<g filter="url(#filter0_d)">
<rect x="80" y="12.3252" width="139.07" height="250.094" rx="7.15732" fill="#303030"/>
</g>
<rect x="80" y="1.20947" width="139.07" height="250.094" rx="7.15732" fill="#606060"/>
<rect x="91.2173" y="12.3252" width="116.819" height="211.19" rx="4.29439" fill="#F2F6FB"/>
<g filter="url(#filter1_d)">
<rect x="98.3967" y="114.884" width="102.791" height="32.6512" rx="5" fill="white"/>
</g>
<ellipse cx="190.304" cy="123.349" rx="15.7209" ry="15.7209" fill="#D64176"/>
<path fill-rule="evenodd" clip-rule="evenodd" d="M190.304 114.884C189.302 114.884 188.49 115.696 188.49 116.698V125.163C188.49 126.165 189.302 126.977 190.304 126.977C191.306 126.977 192.118 126.165 192.118 125.163V116.698C192.118 115.696 191.306 114.884 190.304 114.884ZM190.304 133.023C191.306 133.023 192.118 132.211 192.118 131.209C192.118 130.208 191.306 129.395 190.304 129.395C189.302 129.395 188.49 130.208 188.49 131.209C188.49 132.211 189.302 133.023 190.304 133.023Z" fill="white"/>
<rect x="105.653" y="122.14" width="61.6744" height="4.83721" rx="2.41861" fill="#B2B2B2"/>
<rect x="105.653" y="134.232" width="48.3721" height="4.83723" rx="2.41862" fill="#B2B2B2"/>
<path d="M120.409 93.1163V91.9844H124.762V76.6021H121.454V75.7314C122.208 75.5959 122.876 75.4315 123.456 75.238C124.056 75.0445 124.578 74.822 125.023 74.5704H126.068V91.9844H130.102V93.1163H120.409Z" fill="#8C8C8C"/>
<path d="M133.484 93.1163V92.3037C135.013 90.7558 136.348 89.3723 137.489 88.1533C138.631 86.915 139.579 85.7928 140.334 84.7866C141.108 83.7611 141.678 82.8227 142.046 81.9714C142.433 81.1007 142.626 80.259 142.626 79.4464C142.626 78.2854 142.298 77.3083 141.64 76.515C141.001 75.7217 139.985 75.3251 138.592 75.3251C137.741 75.3251 136.948 75.5572 136.212 76.0216C135.477 76.486 134.829 77.0664 134.268 77.763L133.426 76.9504C134.123 76.1764 134.887 75.5282 135.719 75.0058C136.57 74.4834 137.567 74.2222 138.708 74.2222C140.372 74.2222 141.659 74.6962 142.568 75.6443C143.478 76.5924 143.932 77.8501 143.932 79.4173C143.932 80.3461 143.729 81.2748 143.323 82.2036C142.917 83.113 142.346 84.0804 141.611 85.1059C140.875 86.112 139.976 87.1956 138.911 88.3565C137.867 89.4981 136.706 90.7461 135.429 92.1005C135.932 92.0618 136.444 92.0328 136.967 92.0134C137.509 91.9747 138.031 91.9554 138.534 91.9554H144.861V93.1163H133.484Z" fill="#8C8C8C"/>
<path d="M149.81 82.3777C149.481 82.3777 149.191 82.2616 148.939 82.0294C148.688 81.7972 148.562 81.478 148.562 81.0717C148.562 80.646 148.688 80.3171 148.939 80.0849C149.191 79.8527 149.481 79.7366 149.81 79.7366C150.139 79.7366 150.42 79.8527 150.652 80.0849C150.903 80.3171 151.029 80.646 151.029 81.0717C151.029 81.478 150.903 81.7972 150.652 82.0294C150.42 82.2616 150.139 82.3777 149.81 82.3777ZM149.81 93.4646C149.481 93.4646 149.191 93.3485 148.939 93.1163C148.688 92.8841 148.562 92.5649 148.562 92.1585C148.562 91.7329 148.688 91.4039 148.939 91.1718C149.191 90.9396 149.481 90.8235 149.81 90.8235C150.139 90.8235 150.42 90.9396 150.652 91.1718C150.903 91.4039 151.029 91.7329 151.029 92.1585C151.029 92.5649 150.903 92.8841 150.652 93.1163C150.42 93.3485 150.139 93.4646 149.81 93.4646Z" fill="#8C8C8C"/>
<path d="M160.135 93.4646C159.4 93.4646 158.732 93.3872 158.133 93.2324C157.533 93.0776 156.991 92.8745 156.507 92.6229C156.043 92.3714 155.617 92.0908 155.23 91.7812C154.863 91.4717 154.534 91.1621 154.243 90.8525L154.998 89.9528C155.269 90.2624 155.569 90.5623 155.898 90.8525C156.227 91.1234 156.594 91.3749 157.001 91.6071C157.426 91.8199 157.891 91.9941 158.394 92.1295C158.916 92.265 159.497 92.3327 160.135 92.3327C160.754 92.3327 161.325 92.2359 161.848 92.0425C162.389 91.849 162.854 91.5781 163.241 91.2298C163.628 90.8622 163.928 90.4268 164.14 89.9238C164.353 89.4207 164.46 88.8596 164.46 88.2404C164.46 87.6019 164.334 87.0214 164.082 86.499C163.85 85.9766 163.473 85.5316 162.95 85.1639C162.447 84.777 161.78 84.4771 160.948 84.2642C160.135 84.0514 159.148 83.945 157.987 83.945V82.8131C159.052 82.8131 159.951 82.7066 160.687 82.4938C161.441 82.281 162.041 82.0004 162.486 81.6521C162.95 81.2845 163.279 80.8588 163.473 80.3751C163.686 79.872 163.792 79.3399 163.792 78.7788C163.792 77.734 163.453 76.902 162.776 76.2828C162.099 75.6443 161.19 75.3251 160.048 75.3251C159.177 75.3251 158.384 75.5282 157.668 75.9345C156.952 76.3215 156.323 76.7956 155.782 77.3567L155.027 76.486C155.666 75.8668 156.391 75.3347 157.204 74.8897C158.016 74.4447 158.965 74.2222 160.048 74.2222C160.764 74.2222 161.432 74.3286 162.051 74.5414C162.67 74.7349 163.202 75.0251 163.647 75.4121C164.111 75.7797 164.469 76.2441 164.721 76.8052C164.992 77.347 165.127 77.9758 165.127 78.6918C165.127 79.9107 164.789 80.8975 164.111 81.6521C163.453 82.3874 162.612 82.9291 161.586 83.2774V83.3935C162.167 83.5096 162.709 83.7128 163.212 84.003C163.715 84.2739 164.16 84.6125 164.547 85.0188C164.934 85.4251 165.234 85.8992 165.446 86.441C165.679 86.9634 165.795 87.5535 165.795 88.2114C165.795 89.024 165.65 89.7593 165.359 90.4171C165.069 91.0557 164.663 91.6071 164.14 92.0715C163.637 92.5165 163.037 92.8648 162.341 93.1163C161.664 93.3485 160.928 93.4646 160.135 93.4646Z" fill="#8C8C8C"/>
<path d="M174.662 93.4646C172.882 93.4646 171.508 92.6326 170.54 90.9686C169.592 89.2852 169.118 86.886 169.118 83.7708C169.118 80.675 169.592 78.3144 170.54 76.6891C171.508 75.0445 172.882 74.2222 174.662 74.2222C176.442 74.2222 177.806 75.0445 178.754 76.6891C179.721 78.3144 180.205 80.675 180.205 83.7708C180.205 86.886 179.721 89.2852 178.754 90.9686C177.806 92.6326 176.442 93.4646 174.662 93.4646ZM174.662 92.3617C175.958 92.3617 176.984 91.6458 177.738 90.214C178.512 88.7628 178.899 86.6151 178.899 83.7708C178.899 80.9265 178.512 78.8078 177.738 77.4147C176.984 76.0216 175.958 75.3251 174.662 75.3251C173.385 75.3251 172.359 76.0216 171.585 77.4147C170.811 78.8078 170.424 80.9265 170.424 83.7708C170.424 86.6151 170.811 88.7628 171.585 90.214C172.359 91.6458 173.385 92.3617 174.662 92.3617Z" fill="#8C8C8C"/>
<rect x="130.547" y="232.815" width="36.6031" height="8.70695" rx="4.35348" fill="#B2B2B2"/>
<defs>
<filter id="filter0_d" x="65" y="1.3252" width="169.07" height="280.094" filterUnits="userSpaceOnUse" color-interpolation-filters="sRGB">
<feFlood flood-opacity="0" result="BackgroundImageFix"/>
<feColorMatrix in="SourceAlpha" type="matrix" values="0 0 0 0 0 0 0 0 0 0 0 0 0 0 0 0 0 0 127 0"/>
<feOffset dy="4"/>
<feGaussianBlur stdDeviation="7.5"/>
<feColorMatrix type="matrix" values="0 0 0 0 0.136354 0 0 0 0 0.294906 0 0 0 0 0.425 0 0 0 0.15 0"/>
<feBlend mode="normal" in2="BackgroundImageFix" result="effect1_dropShadow"/>
<feBlend mode="normal" in="SourceGraphic" in2="effect1_dropShadow" result="shape"/>
</filter>
<filter id="filter1_d" x="84.3967" y="104.884" width="130.791" height="60.6512" filterUnits="userSpaceOnUse" color-interpolation-filters="sRGB">
<feFlood flood-opacity="0" result="BackgroundImageFix"/>
<feColorMatrix in="SourceAlpha" type="matrix" values="0 0 0 0 0 0 0 0 0 0 0 0 0 0 0 0 0 0 127 0"/>
<feOffset dy="4"/>
<feGaussianBlur stdDeviation="7"/>
<feColorMatrix type="matrix" values="0 0 0 0 0.136354 0 0 0 0 0.294906 0 0 0 0 0.425 0 0 0 0.1 0"/>
<feBlend mode="normal" in2="BackgroundImageFix" result="effect1_dropShadow"/>
<feBlend mode="normal" in="SourceGraphic" in2="effect1_dropShadow" result="shape"/>
</filter>
<linearGradient id="paint0_linear" x1="128.498" y1="236.162" x2="-39.4908" y2="-98.8295" gradientUnits="userSpaceOnUse">
<stop stop-color="#F8ECF7"/>
<stop offset="0.005618" stop-color="#F8ECF7"/>
<stop offset="0.449438" stop-color="#D0DBF2"/>
<stop offset="1" stop-color="#B8C8EA"/>
</linearGradient>
</defs>
</svg>
